;FLAVOR:Marlin
;TIME:24104
;Filament used: 1.0243m
;Layer height: 0.06
;MINX:13.665
;MINY:31.051
;MINZ:0.1
;MAXX:116.335
;MAXY:98.949
;MAXZ:2.02
;Generated with Cura_SteamEngine 4.12.1
M82 ;absolute extrusion mode
G28 ;Home
G92 E0
;LAYER_COUNT:33
;LAYER:0
M107
;MESH:Sample_Empa.stl
G0 F6000 X13.665 Y86.017 Z0.1
;TYPE:WALL-OUTER
G1 F300 X108.869 Y31.051 E0.13711
G1 X116.335 Y43.983 E0.15574
G1 X21.131 Y98.949 E0.29285
G1 X13.665 Y86.017 E0.31148
G0 F6000 X13.684 Y86.006
G0 X21.153 Y98.92
;TYPE:SKIN
G1 F300 X21.096 Y98.864 E0.31158
G0 F6000 X21.179 Y98.905
G1 F300 X21.038 Y98.763 E0.31183
G0 F6000 X20.98 Y98.663
G1 F300 X21.206 Y98.889 E0.31222
G0 F6000 X21.233 Y98.874
G1 F300 X20.922 Y98.562 E0.31277
G0 F6000 X20.864 Y98.462
G1 F300 X21.26 Y98.858 E0.31347
G0 F6000 X21.287 Y98.842
G1 F300 X20.806 Y98.362 E0.31432
G0 F6000 X20.748 Y98.261
G1 F300 X21.314 Y98.827 E0.31532
G0 F6000 X21.341 Y98.811
G1 F300 X20.69 Y98.161 E0.31646
G0 F6000 X20.632 Y98.06
G1 F300 X21.368 Y98.796 E0.31776
G0 F6000 X21.394 Y98.78
G1 F300 X20.574 Y97.96 E0.31921
G0 F6000 X20.516 Y97.86
G1 F300 X21.421 Y98.765 E0.32081
G0 F6000 X21.448 Y98.749
G1 F300 X20.458 Y97.759 E0.32255
G0 F6000 X20.401 Y97.659
G1 F300 X21.475 Y98.734 E0.32445
G0 F6000 X21.502 Y98.718
G1 F300 X20.343 Y97.559 E0.32649
G0 F6000 X20.285 Y97.459
G1 F300 X21.529 Y98.702 E0.32869
G0 F6000 X21.556 Y98.687
G1 F300 X20.227 Y97.358 E0.33103
G0 F6000 X20.169 Y97.258
G1 F300 X21.583 Y98.671 E0.33352
G0 F6000 X21.61 Y98.656
G1 F300 X20.111 Y97.157 E0.33617
G0 F6000 X20.053 Y97.057
G1 F300 X21.637 Y98.641 E0.33896
G0 F6000 X21.664 Y98.625
G1 F300 X19.995 Y96.957 E0.3419
G0 F6000 X19.937 Y96.856
G1 F300 X21.691 Y98.61 E0.345
G0 F6000 X21.718 Y98.594
G1 F300 X19.879 Y96.756 E0.34824
G0 F6000 X19.821 Y96.655
G1 F300 X21.744 Y98.579 E0.35163
G0 F6000 X21.771 Y98.563
G1 F300 X19.763 Y96.555 E0.35518
G0 F6000 X19.705 Y96.455
G1 F300 X21.798 Y98.548 E0.35887
G0 F6000 X21.825 Y98.532
G1 F300 X19.647 Y96.354 E0.36271
G0 F6000 X19.589 Y96.254
G1 F300 X21.852 Y98.516 E0.3667
G0 F6000 X21.879 Y98.501
G1 F300 X19.531 Y96.153 E0.37084
G0 F6000 X19.473 Y96.053
G1 F300 X21.906 Y98.485 E0.37513
G0 F6000 X21.933 Y98.47
G1 F300 X19.415 Y95.952 E0.37957
G0 F6000 X19.357 Y95.852
G1 F300 X21.959 Y98.454 E0.38416
G0 F6000 X21.986 Y98.439
G1 F300 X19.3 Y95.752 E0.3889
G0 F6000 X19.242 Y95.652
G1 F300 X22.013 Y98.423 E0.39379
G0 F6000 X22.04 Y98.408
G1 F300 X19.184 Y95.552 E0.39883
G0 F6000 X19.126 Y95.451
G1 F300 X22.067 Y98.392 E0.40401
G0 F6000 X22.094 Y98.376
G1 F300 X19.068 Y95.351 E0.40935
G0 F6000 X19.01 Y95.25
G1 F300 X22.121 Y98.361 E0.41484
G0 F6000 X22.147 Y98.345
G1 F300 X18.952 Y95.15 E0.42047
G0 F6000 X18.894 Y95.05
G1 F300 X22.174 Y98.33 E0.42626
G0 F6000 X22.201 Y98.314
G1 F300 X18.836 Y94.949 E0.4322
G0 F6000 X18.778 Y94.849
G1 F300 X22.228 Y98.299 E0.43828
G0 F6000 X22.255 Y98.283
G1 F300 X18.72 Y94.748 E0.44452
G0 F6000 X18.662 Y94.648
G1 F300 X22.282 Y98.268 E0.4509
G0 F6000 X22.309 Y98.253
G1 F300 X18.604 Y94.547 E0.45744
G0 F6000 X18.546 Y94.447
G1 F300 X22.336 Y98.237 E0.46412
G0 F6000 X22.363 Y98.222
G1 F300 X18.488 Y94.347 E0.47096
G0 F6000 X18.43 Y94.246
G1 F300 X22.39 Y98.206 E0.47794
G0 F6000 X22.417 Y98.19
G1 F300 X18.372 Y94.146 E0.48508
G0 F6000 X18.314 Y94.045
G1 F300 X22.444 Y98.175 E0.49236
G0 F6000 X22.471 Y98.159
G1 F300 X18.257 Y93.946 E0.49979
G0 F6000 X18.199 Y93.845
G1 F300 X22.498 Y98.144 E0.50738
G0 F6000 X22.524 Y98.128
G1 F300 X18.141 Y93.745 E0.51511
G0 F6000 X18.083 Y93.644
G1 F300 X22.551 Y98.113 E0.52299
G0 F6000 X22.578 Y98.097
G1 F300 X18.025 Y93.544 E0.53102
G0 F6000 X17.967 Y93.444
G1 F300 X22.605 Y98.082 E0.5392
G0 F6000 X22.632 Y98.066
G1 F300 X17.909 Y93.343 E0.54753
G0 F6000 X17.851 Y93.243
G1 F300 X22.659 Y98.05 E0.55601
G0 F6000 X22.686 Y98.035
G1 F300 X17.793 Y93.142 E0.56464
G0 F6000 X17.735 Y93.042
G1 F300 X22.712 Y98.019 E0.57342
G0 F6000 X22.739 Y98.004
G1 F300 X17.677 Y92.942 E0.58235
G0 F6000 X17.619 Y92.841
G1 F300 X22.766 Y97.988 E0.59143
G0 F6000 X22.793 Y97.973
G1 F300 X17.561 Y92.741 E0.60066
G0 F6000 X17.503 Y92.64
G1 F300 X22.82 Y97.957 E0.61004
G0 F6000 X22.847 Y97.942
G1 F300 X17.445 Y92.54 E0.61956
G0 F6000 X17.387 Y92.44
G1 F300 X22.874 Y97.926 E0.62924
G0 F6000 X22.901 Y97.91
G1 F300 X17.329 Y92.339 E0.63907
G0 F6000 X17.271 Y92.239
G1 F300 X22.927 Y97.895 E0.64905
G0 F6000 X22.954 Y97.879
G1 F300 X17.213 Y92.138 E0.65917
G0 F6000 X17.156 Y92.039
G1 F300 X22.981 Y97.864 E0.66945
G0 F6000 X23.009 Y97.849
G1 F300 X17.098 Y91.938 E0.67987
G0 F6000 X17.04 Y91.838
G1 F300 X23.036 Y97.833 E0.69045
G0 F6000 X23.062 Y97.818
G1 F300 X16.982 Y91.737 E0.70117
G0 F6000 X16.924 Y91.637
G1 F300 X23.089 Y97.802 E0.71205
G0 F6000 X23.116 Y97.787
G1 F300 X16.866 Y91.537 E0.72307
G0 F6000 X16.808 Y91.436
G1 F300 X23.143 Y97.771 E0.73425
G0 F6000 X23.17 Y97.756
G1 F300 X16.75 Y91.336 E0.74557
G0 F6000 X16.692 Y91.235
G1 F300 X23.197 Y97.74 E0.75705
G0 F6000 X23.224 Y97.724
G1 F300 X16.634 Y91.135 E0.76867
G0 F6000 X16.576 Y91.035
G1 F300 X23.251 Y97.709 E0.78044
G0 F6000 X23.277 Y97.693
G1 F300 X16.518 Y90.934 E0.79236
G0 F6000 X16.46 Y90.834
G1 F300 X23.304 Y97.678 E0.80444
G0 F6000 X23.331 Y97.662
G1 F300 X16.402 Y90.733 E0.81666
G0 F6000 X16.344 Y90.633
G1 F300 X23.358 Y97.647 E0.82903
G0 F6000 X23.385 Y97.631
G1 F300 X16.286 Y90.533 E0.84155
G0 F6000 X16.228 Y90.432
G1 F300 X23.412 Y97.616 E0.85422
G0 F6000 X23.439 Y97.6
G1 F300 X16.17 Y90.332 E0.86704
G0 F6000 X16.113 Y90.232
G1 F300 X23.466 Y97.584 E0.88001
G0 F6000 X23.492 Y97.569
G1 F300 X16.055 Y90.132 E0.89313
G0 F6000 X15.997 Y90.031
G1 F300 X23.519 Y97.553 E0.9064
G0 F6000 X23.546 Y97.538
G1 F300 X15.939 Y89.931 E0.91982
G0 F6000 X15.881 Y89.83
G1 F300 X23.573 Y97.522 E0.93338
G0 F6000 X23.6 Y97.507
G1 F300 X15.823 Y89.73 E0.9471
G0 F6000 X15.765 Y89.63
G1 F300 X23.627 Y97.491 E0.96097
G0 F6000 X23.654 Y97.476
G1 F300 X15.707 Y89.529 E0.97499
G0 F6000 X15.649 Y89.429
G1 F300 X23.681 Y97.461 E0.98915
G0 F6000 X23.708 Y97.445
G1 F300 X15.591 Y89.328 E1.00347
G0 F6000 X15.533 Y89.228
G1 F300 X23.735 Y97.43 E1.01794
G0 F6000 X23.762 Y97.414
G1 F300 X15.475 Y89.127 E1.03256
G0 F6000 X15.417 Y89.027
G1 F300 X23.789 Y97.399 E1.04732
G0 F6000 X23.816 Y97.383
G1 F300 X15.359 Y88.927 E1.06224
G0 F6000 X15.301 Y88.826
G1 F300 X23.842 Y97.367 E1.0773
G0 F6000 X23.869 Y97.352
G1 F300 X15.243 Y88.726 E1.09252
G0 F6000 X15.185 Y88.625
G1 F300 X23.896 Y97.336 E1.10788
G0 F6000 X23.923 Y97.321
G1 F300 X15.127 Y88.525 E1.1234
G0 F6000 X15.069 Y88.425
G1 F300 X23.95 Y97.305 E1.13906
G0 F6000 X23.977 Y97.29
G1 F300 X15.012 Y88.325 E1.15488
G0 F6000 X14.954 Y88.225
G1 F300 X24.004 Y97.274 E1.17084
G0 F6000 X24.031 Y97.259
G1 F300 X14.896 Y88.124 E1.18695
G0 F6000 X14.838 Y88.024
G1 F300 X24.057 Y97.243 E1.20321
G0 F6000 X24.084 Y97.227
G1 F300 X14.78 Y87.923 E1.21963
G0 F6000 X14.722 Y87.823
G1 F300 X24.111 Y97.212 E1.23619
G0 F6000 X24.138 Y97.196
G1 F300 X14.664 Y87.722 E1.2529
G0 F6000 X14.606 Y87.622
G1 F300 X24.165 Y97.181 E1.26976
G0 F6000 X24.192 Y97.165
G1 F300 X14.548 Y87.522 E1.28677
G0 F6000 X14.49 Y87.421
G1 F300 X24.219 Y97.15 E1.30393
G0 F6000 X24.245 Y97.134
G1 F300 X14.432 Y87.321 E1.32124
G0 F6000 X14.374 Y87.22
G1 F300 X24.272 Y97.118 E1.3387
G0 F6000 X24.299 Y97.103
G1 F300 X14.316 Y87.12 E1.35631
G0 F6000 X14.258 Y87.02
G1 F300 X24.326 Y97.087 E1.37406
G0 F6000 X24.353 Y97.072
G1 F300 X14.2 Y86.919 E1.39197
G0 F6000 X14.142 Y86.819
G1 F300 X24.381 Y97.057 E1.41003
G0 F6000 X24.407 Y97.041
G1 F300 X14.084 Y86.718 E1.42824
G0 F6000 X14.026 Y86.618
G1 F300 X24.434 Y97.026 E1.4466
G0 F6000 X24.461 Y97.01
G1 F300 X13.968 Y86.518 E1.46511
G0 F6000 X13.911 Y86.418
G1 F300 X24.488 Y96.995 E1.48376
G0 F6000 X24.515 Y96.979
G1 F300 X13.853 Y86.317 E1.50257
G0 F6000 X13.795 Y86.217
G1 F300 X24.542 Y96.964 E1.52153
G0 F6000 X24.569 Y96.948
G1 F300 X13.737 Y86.117 E1.54063
G0 F6000 X13.683 Y86.02
G1 F300 X24.596 Y96.933 E1.55988
G0 F6000 X24.622 Y96.917
G1 F300 X13.71 Y86.004 E1.57913
G0 F6000 X13.736 Y85.989
G1 F300 X24.649 Y96.901 E1.59838
G0 F6000 X24.676 Y96.886
G1 F300 X13.763 Y85.973 E1.61763
G0 F6000 X13.79 Y85.958
G1 F300 X24.703 Y96.87 E1.63688
G0 F6000 X24.73 Y96.855
G1 F300 X13.817 Y85.942 E1.65613
G0 F6000 X13.844 Y85.926
G1 F300 X24.757 Y96.839 E1.67537
G0 F6000 X24.784 Y96.824
G1 F300 X13.871 Y85.911 E1.69462
G0 F6000 X13.898 Y85.895
G1 F300 X24.81 Y96.808 E1.71387
G0 F6000 X24.837 Y96.793
G1 F300 X13.925 Y85.88 E1.73312
G0 F6000 X13.951 Y85.864
G1 F300 X24.864 Y96.777 E1.75237
G0 F6000 X24.891 Y96.761
G1 F300 X13.978 Y85.849 E1.77162
G0 F6000 X14.005 Y85.833
G1 F300 X24.918 Y96.746 E1.79087
G0 F6000 X24.945 Y96.73
G1 F300 X14.032 Y85.818 E1.81012
G0 F6000 X14.059 Y85.802
G1 F300 X24.972 Y96.715 E1.82937
G0 F6000 X24.999 Y96.699
G1 F300 X14.086 Y85.786 E1.84861
G0 F6000 X14.113 Y85.771
G1 F300 X25.025 Y96.684 E1.86786
G0 F6000 X25.052 Y96.668
G1 F300 X14.14 Y85.755 E1.88711
G0 F6000 X14.166 Y85.74
G1 F300 X25.08 Y96.653 E1.90636
G0 F6000 X25.107 Y96.638
G1 F300 X14.194 Y85.725 E1.92561
G0 F6000 X14.221 Y85.709
G1 F300 X25.134 Y96.622 E1.94486
G0 F6000 X25.16 Y96.607
G1 F300 X14.248 Y85.694 E1.96411
G0 F6000 X14.275 Y85.678
G1 F300 X25.187 Y96.591 E1.98336
G0 F6000 X25.214 Y96.575
G1 F300 X14.301 Y85.663 E2.00261
G0 F6000 X14.328 Y85.647
G1 F300 X25.241 Y96.56 E2.02185
G0 F6000 X25.268 Y96.544
G1 F300 X14.355 Y85.632 E2.0411
G0 F6000 X14.382 Y85.616
G1 F300 X25.295 Y96.529 E2.06035
G0 F6000 X25.322 Y96.513
G1 F300 X14.409 Y85.6 E2.0796
G0 F6000 X14.436 Y85.585
G1 F300 X25.349 Y96.498 E2.09885
G0 F6000 X25.375 Y96.482
G1 F300 X14.463 Y85.569 E2.1181
G0 F6000 X14.49 Y85.554
G1 F300 X25.402 Y96.467 E2.13735
G0 F6000 X25.429 Y96.451
G1 F300 X14.516 Y85.538 E2.1566
G0 F6000 X14.543 Y85.523
G1 F300 X25.456 Y96.435 E2.17584
G0 F6000 X25.483 Y96.42
G1 F300 X14.57 Y85.507 E2.19509
G0 F6000 X14.597 Y85.492
G1 F300 X25.51 Y96.404 E2.21434
G0 F6000 X25.537 Y96.389
G1 F300 X14.624 Y85.476 E2.23359
G0 F6000 X14.651 Y85.46
G1 F300 X25.564 Y96.373 E2.25284
G0 F6000 X25.59 Y96.358
G1 F300 X14.678 Y85.445 E2.27209
G0 F6000 X14.704 Y85.429
G1 F300 X25.617 Y96.342 E2.29134
G0 F6000 X25.644 Y96.327
G1 F300 X14.731 Y85.414 E2.31059
G0 F6000 X14.758 Y85.398
G1 F300 X25.671 Y96.311 E2.32984
G0 F6000 X25.698 Y96.295
G1 F300 X14.785 Y85.383 E2.34909
G0 F6000 X14.812 Y85.367
G1 F300 X25.725 Y96.28 E2.36834
G0 F6000 X25.752 Y96.264
G1 F300 X14.839 Y85.352 E2.38758
G0 F6000 X14.866 Y85.336
G1 F300 X25.779 Y96.249 E2.40683
G0 F6000 X25.806 Y96.234
G1 F300 X14.893 Y85.321 E2.42608
G0 F6000 X14.92 Y85.306
G1 F300 X25.833 Y96.218 E2.44533
G0 F6000 X25.86 Y96.203
G1 F300 X14.947 Y85.29 E2.46458
G0 F6000 X14.974 Y85.274
G1 F300 X25.887 Y96.187 E2.48383
G0 F6000 X25.914 Y96.172
G1 F300 X15.001 Y85.259 E2.50308
G0 F6000 X15.028 Y85.243
G1 F300 X25.94 Y96.156 E2.52233
G0 F6000 X25.967 Y96.141
G1 F300 X15.055 Y85.228 E2.54158
G0 F6000 X15.081 Y85.212
G1 F300 X25.994 Y96.125 E2.56082
G0 F6000 X26.021 Y96.109
G1 F300 X15.108 Y85.197 E2.58007
G0 F6000 X15.135 Y85.181
G1 F300 X26.048 Y96.094 E2.59932
G0 F6000 X26.075 Y96.078
G1 F300 X15.162 Y85.166 E2.61857
G0 F6000 X15.189 Y85.15
G1 F300 X26.102 Y96.063 E2.63782
G0 F6000 X26.129 Y96.047
G1 F300 X15.216 Y85.134 E2.65707
G0 F6000 X15.243 Y85.119
G1 F300 X26.155 Y96.032 E2.67632
G0 F6000 X26.182 Y96.016
G1 F300 X15.269 Y85.103 E2.69557
G0 F6000 X15.296 Y85.088
G1 F300 X26.209 Y96.001 E2.71482
G0 F6000 X26.236 Y95.985
G1 F300 X15.323 Y85.072 E2.73407
G0 F6000 X15.35 Y85.057
G1 F300 X26.263 Y95.969 E2.75331
G0 F6000 X26.29 Y95.954
G1 F300 X15.377 Y85.041 E2.77256
G0 F6000 X15.404 Y85.026
G1 F300 X26.317 Y95.938 E2.79181
G0 F6000 X26.343 Y95.923
G1 F300 X15.431 Y85.01 E2.81106
G0 F6000 X15.458 Y84.994
G1 F300 X26.37 Y95.907 E2.83031
G0 F6000 X26.397 Y95.892
G1 F300 X15.484 Y84.979 E2.84956
G0 F6000 X15.511 Y84.963
G1 F300 X26.424 Y95.876 E2.86881
G0 F6000 X26.452 Y95.861
G1 F300 X15.538 Y84.948 E2.88806
G0 F6000 X15.565 Y84.932
G1 F300 X26.479 Y95.846 E2.90731
G0 F6000 X26.505 Y95.83
G1 F300 X15.593 Y84.917 E2.92656
G0 F6000 X15.619 Y84.902
G1 F300 X26.532 Y95.815 E2.94581
G0 F6000 X26.559 Y95.799
G1 F300 X15.646 Y84.886 E2.96505
G0 F6000 X15.673 Y84.871
G1 F300 X26.586 Y95.783 E2.9843
G0 F6000 X26.613 Y95.768
G1 F300 X15.7 Y84.855 E3.00355
G0 F6000 X15.727 Y84.84
G1 F300 X26.64 Y95.752 E3.0228
G0 F6000 X26.667 Y95.737
G1 F300 X15.754 Y84.824 E3.04205
G0 F6000 X15.781 Y84.808
G1 F300 X26.693 Y95.721 E3.0613
G0 F6000 X26.72 Y95.706
G1 F300 X15.808 Y84.793 E3.08055
G0 F6000 X15.834 Y84.777
G1 F300 X26.747 Y95.69 E3.0998
G0 F6000 X26.774 Y95.675
G1 F300 X15.861 Y84.762 E3.11905
G0 F6000 X15.888 Y84.746
G1 F300 X26.801 Y95.659 E3.13829
G0 F6000 X26.828 Y95.643
G1 F300 X15.915 Y84.731 E3.15754
G0 F6000 X15.942 Y84.715
G1 F300 X26.855 Y95.628 E3.17679
G0 F6000 X26.882 Y95.612
G1 F300 X15.969 Y84.7 E3.19604
G0 F6000 X15.996 Y84.684
G1 F300 X26.908 Y95.597 E3.21529
G0 F6000 X26.935 Y95.581
G1 F300 X16.023 Y84.668 E3.23454
G0 F6000 X16.049 Y84.653
G1 F300 X26.962 Y95.566 E3.25379
G0 F6000 X26.989 Y95.55
G1 F300 X16.076 Y84.637 E3.27304
G0 F6000 X16.103 Y84.622
G1 F300 X27.016 Y95.535 E3.29229
G0 F6000 X27.043 Y95.519
G1 F300 X16.13 Y84.606 E3.31153
G0 F6000 X16.157 Y84.591
G1 F300 X27.07 Y95.503 E3.33078
G0 F6000 X27.097 Y95.488
G1 F300 X16.184 Y84.575 E3.35003
G0 F6000 X16.211 Y84.56
G1 F300 X27.123 Y95.472 E3.36928
G0 F6000 X27.151 Y95.458
G1 F300 X16.238 Y84.544 E3.38853
G0 F6000 X16.264 Y84.528
G1 F300 X27.178 Y95.442 E3.40778
G0 F6000 X27.205 Y95.426
G1 F300 X16.292 Y84.514 E3.42703
G0 F6000 X16.319 Y84.498
G1 F300 X27.232 Y95.411 E3.44628
G0 F6000 X27.258 Y95.395
G1 F300 X16.346 Y84.482 E3.46553
G0 F6000 X16.373 Y84.467
G1 F300 X27.285 Y95.38 E3.48478
G0 F6000 X27.312 Y95.364
G1 F300 X16.399 Y84.451 E3.50402
G0 F6000 X16.426 Y84.436
G1 F300 X27.339 Y95.349 E3.52327
G0 F6000 X27.366 Y95.333
G1 F300 X16.453 Y84.42 E3.54252
G0 F6000 X16.48 Y84.405
G1 F300 X27.393 Y95.317 E3.56177
G0 F6000 X27.42 Y95.302
G1 F300 X16.507 Y84.389 E3.58102
G0 F6000 X16.534 Y84.374
G1 F300 X27.447 Y95.286 E3.60027
G0 F6000 X27.473 Y95.271
G1 F300 X16.561 Y84.358 E3.61952
G0 F6000 X16.588 Y84.342
G1 F300 X27.5 Y95.255 E3.63877
G0 F6000 X27.527 Y95.24
G1 F300 X16.614 Y84.327 E3.65802
G0 F6000 X16.641 Y84.311
G1 F300 X27.554 Y95.224 E3.67726
G0 F6000 X27.581 Y95.209
G1 F300 X16.668 Y84.296 E3.69651
G0 F6000 X16.695 Y84.28
G1 F300 X27.608 Y95.193 E3.71576
G0 F6000 X27.635 Y95.177
G1 F300 X16.722 Y84.265 E3.73501
G0 F6000 X16.749 Y84.249
G1 F300 X27.662 Y95.162 E3.75426
G0 F6000 X27.688 Y95.146
G1 F300 X16.776 Y84.234 E3.77351
G0 F6000 X16.802 Y84.218
G1 F300 X27.715 Y95.131 E3.79276
G0 F6000 X27.742 Y95.115
G1 F300 X16.829 Y84.202 E3.81201
G0 F6000 X16.856 Y84.187
G1 F300 X27.769 Y95.1 E3.83126
G0 F6000 X27.796 Y95.084
G1 F300 X16.883 Y84.171 E3.85051
G0 F6000 X16.91 Y84.156
G1 F300 X27.823 Y95.069 E3.86975
G0 F6000 X27.85 Y95.054
G1 F300 X16.937 Y84.14 E3.88901
G0 F6000 X16.964 Y84.125
G1 F300 X27.877 Y95.038 E3.90825
G0 F6000 X27.904 Y95.023
G1 F300 X16.991 Y84.11 E3.9275
G0 F6000 X17.018 Y84.094
G1 F300 X27.931 Y95.007 E3.94675
G0 F6000 X27.958 Y94.992
G1 F300 X17.045 Y84.079 E3.966
G0 F6000 X17.072 Y84.063
G1 F300 X27.985 Y94.976 E3.98525
G0 F6000 X28.012 Y94.96
G1 F300 X17.099 Y84.048 E4.0045
G0 F6000 X17.126 Y84.032
G1 F300 X28.038 Y94.945 E4.02375
G0 F6000 X28.065 Y94.929
G1 F300 X17.152 Y84.017 E4.043
G0 F6000 X17.179 Y84.001
G1 F300 X28.092 Y94.914 E4.06225
G0 F6000 X28.119 Y94.898
G1 F300 X17.206 Y83.985 E4.0815
G0 F6000 X17.233 Y83.97
G1 F300 X28.146 Y94.883 E4.10074
G0 F6000 X28.173 Y94.867
G1 F300 X17.26 Y83.954 E4.11999
G0 F6000 X17.287 Y83.939
G1 F300 X28.2 Y94.852 E4.13924
G0 F6000 X28.226 Y94.836
G1 F300 X17.314 Y83.923 E4.15849
G0 F6000 X17.341 Y83.908
G1 F300 X28.253 Y94.82 E4.17774
G0 F6000 X28.28 Y94.805
G1 F300 X17.367 Y83.892 E4.19699
G0 F6000 X17.394 Y83.877
G1 F300 X28.307 Y94.789 E4.21624
G0 F6000 X28.334 Y94.774
G1 F300 X17.421 Y83.861 E4.23549
G0 F6000 X17.448 Y83.845
G1 F300 X28.361 Y94.758 E4.25474
G0 F6000 X28.388 Y94.743
G1 F300 X17.475 Y83.83 E4.27398
