;FLAVOR:Marlin
;TIME:28766
;Filament used: 1.24177m
;Layer height: 0.06
;MINX:23.17
;MINY:42.615
;MINZ:0.1
;MAXX:106.83
;MAXY:87.385
;MAXZ:2.02
;Generated with Cura_SteamEngine 4.12.1
M82 ;absolute extrusion mode
G28 ;Home
G92 E0
;LAYER_COUNT:33
;LAYER:0
M107
;MESH:Strip without holes_new size.stl
G0 F6000 X29.622 Y42.615 Z0.1
;TYPE:WALL-OUTER
G1 F300 X106.83 Y63.303 E0.0997
G1 X100.378 Y87.385 E0.13079
G1 X23.17 Y66.697 E0.23049
G1 X29.622 Y42.615 E0.26158
G0 F6000 X29.643 Y42.62
G0 X23.188 Y66.675
;TYPE:SKIN
G1 F300 X23.205 Y66.692 E0.26161
G0 F6000 X23.197 Y66.641
G1 F300 X23.263 Y66.707 E0.26173
G0 F6000 X23.321 Y66.723
G1 F300 X23.206 Y66.608 E0.26193
G0 F6000 X23.215 Y66.575
G1 F300 X23.379 Y66.738 E0.26222
G0 F6000 X23.437 Y66.754
G1 F300 X23.224 Y66.541 E0.2626
G0 F6000 X23.233 Y66.508
G1 F300 X23.495 Y66.769 E0.26306
G0 F6000 X23.553 Y66.785
G1 F300 X23.242 Y66.475 E0.2636
G0 F6000 X23.251 Y66.441
G1 F300 X23.611 Y66.801 E0.26424
G0 F6000 X23.668 Y66.816
G1 F300 X23.26 Y66.407 E0.26496
G0 F6000 X23.269 Y66.374
G1 F300 X23.726 Y66.831 E0.26577
G0 F6000 X23.784 Y66.847
G1 F300 X23.277 Y66.34 E0.26666
G0 F6000 X23.287 Y66.307
G1 F300 X23.842 Y66.862 E0.26764
G0 F6000 X23.9 Y66.878
G1 F300 X23.296 Y66.274 E0.2687
G0 F6000 X23.305 Y66.241
G1 F300 X23.958 Y66.893 E0.26986
G0 F6000 X24.016 Y66.909
G1 F300 X23.314 Y66.207 E0.27109
G0 F6000 X23.323 Y66.173
G1 F300 X24.074 Y66.924 E0.27242
G0 F6000 X24.132 Y66.94
G1 F300 X23.332 Y66.14 E0.27383
G0 F6000 X23.34 Y66.106
G1 F300 X24.19 Y66.955 E0.27533
G0 F6000 X24.248 Y66.971
G1 F300 X23.35 Y66.073 E0.27691
G0 F6000 X23.359 Y66.04
G1 F300 X24.306 Y66.987 E0.27858
G0 F6000 X24.364 Y67.002
G1 F300 X23.367 Y66.006 E0.28034
G0 F6000 X23.376 Y65.973
G1 F300 X24.422 Y67.018 E0.28218
G0 F6000 X24.48 Y67.033
G1 F300 X23.386 Y65.939 E0.28411
G0 F6000 X23.394 Y65.905
G1 F300 X24.538 Y67.049 E0.28613
G0 F6000 X24.596 Y67.064
G1 F300 X23.403 Y65.872 E0.28823
G0 F6000 X23.413 Y65.839
G1 F300 X24.653 Y67.08 E0.29042
G0 F6000 X24.711 Y67.095
G1 F300 X23.421 Y65.805 E0.2927
G0 F6000 X23.43 Y65.772
G1 F300 X24.769 Y67.111 E0.29506
G0 F6000 X24.827 Y67.127
G1 F300 X23.439 Y65.739 E0.29751
G0 F6000 X23.448 Y65.705
G1 F300 X24.885 Y67.142 E0.30004
G0 F6000 X24.943 Y67.158
G1 F300 X23.457 Y65.671 E0.30267
G0 F6000 X23.466 Y65.638
G1 F300 X25.001 Y67.173 E0.30537
G0 F6000 X25.059 Y67.189
G1 F300 X23.475 Y65.604 E0.30817
G0 F6000 X23.484 Y65.571
G1 F300 X25.117 Y67.204 E0.31105
G0 F6000 X25.175 Y67.22
G1 F300 X23.493 Y65.538 E0.31402
G0 F6000 X23.502 Y65.504
G1 F300 X25.233 Y67.235 E0.31707
G0 F6000 X25.291 Y67.25
G1 F300 X23.511 Y65.471 E0.32021
G0 F6000 X23.52 Y65.437
G1 F300 X25.349 Y67.266 E0.32343
G0 F6000 X25.407 Y67.281
G1 F300 X23.528 Y65.403 E0.32675
G0 F6000 X23.538 Y65.37
G1 F300 X25.465 Y67.297 E0.33015
G0 F6000 X25.523 Y67.313
G1 F300 X23.547 Y65.337 E0.33363
G0 F6000 X23.555 Y65.303
G1 F300 X25.581 Y67.328 E0.3372
G0 F6000 X25.638 Y67.344
G1 F300 X23.565 Y65.27 E0.34086
G0 F6000 X23.574 Y65.236
G1 F300 X25.696 Y67.359 E0.34461
G0 F6000 X25.754 Y67.375
G1 F300 X23.583 Y65.203 E0.34844
G0 F6000 X23.591 Y65.169
G1 F300 X25.812 Y67.39 E0.35235
G0 F6000 X25.87 Y67.406
G1 F300 X23.601 Y65.136 E0.35636
G0 F6000 X23.61 Y65.103
G1 F300 X25.928 Y67.421 E0.36044
G0 F6000 X25.986 Y67.437
G1 F300 X23.618 Y65.069 E0.36462
G0 F6000 X23.627 Y65.036
G1 F300 X26.044 Y67.453 E0.36889
G0 F6000 X26.102 Y67.468
G1 F300 X23.637 Y65.002 E0.37323
G0 F6000 X23.645 Y64.968
G1 F300 X26.16 Y67.484 E0.37767
G0 F6000 X26.218 Y67.499
G1 F300 X23.654 Y64.935 E0.38219
G0 F6000 X23.664 Y64.902
G1 F300 X26.276 Y67.515 E0.3868
G0 F6000 X26.334 Y67.53
G1 F300 X23.672 Y64.868 E0.3915
G0 F6000 X23.681 Y64.835
G1 F300 X26.392 Y67.546 E0.39628
G0 F6000 X26.45 Y67.561
G1 F300 X23.69 Y64.802 E0.40115
G0 F6000 X23.699 Y64.768
G1 F300 X26.508 Y67.577 E0.4061
G0 F6000 X26.566 Y67.593
G1 F300 X23.708 Y64.734 E0.41114
G0 F6000 X23.717 Y64.701
G1 F300 X26.624 Y67.608 E0.41627
G0 F6000 X26.682 Y67.624
G1 F300 X23.726 Y64.667 E0.42149
G0 F6000 X23.735 Y64.634
G1 F300 X26.74 Y67.639 E0.42679
G0 F6000 X26.797 Y67.654
G1 F300 X23.744 Y64.601 E0.43217
G0 F6000 X23.753 Y64.567
G1 F300 X26.855 Y67.67 E0.43764
G0 F6000 X26.913 Y67.685
G1 F300 X23.762 Y64.534 E0.4432
G0 F6000 X23.771 Y64.5
G1 F300 X26.971 Y67.701 E0.44885
G0 F6000 X27.029 Y67.716
G1 F300 X23.78 Y64.466 E0.45458
G0 F6000 X23.789 Y64.433
G1 F300 X27.087 Y67.732 E0.4604
G0 F6000 X27.145 Y67.747
G1 F300 X23.798 Y64.4 E0.4663
G0 F6000 X23.806 Y64.366
G1 F300 X27.203 Y67.763 E0.47229
G0 F6000 X27.261 Y67.779
G1 F300 X23.816 Y64.333 E0.47837
G0 F6000 X23.825 Y64.3
G1 F300 X27.319 Y67.794 E0.48453
G0 F6000 X27.377 Y67.81
G1 F300 X23.833 Y64.266 E0.49078
G0 F6000 X23.842 Y64.232
G1 F300 X27.435 Y67.825 E0.49712
G0 F6000 X27.493 Y67.841
G1 F300 X23.852 Y64.199 E0.50355
G0 F6000 X23.861 Y64.166
G1 F300 X27.551 Y67.856 E0.51005
G0 F6000 X27.609 Y67.872
G1 F300 X23.869 Y64.132 E0.51665
G0 F6000 X23.878 Y64.099
G1 F300 X27.667 Y67.887 E0.52333
G0 F6000 X27.725 Y67.903
G1 F300 X23.888 Y64.065 E0.5301
G0 F6000 X23.896 Y64.032
G1 F300 X27.783 Y67.919 E0.53696
G0 F6000 X27.841 Y67.934
G1 F300 X23.905 Y63.998 E0.5439
G0 F6000 X23.915 Y63.965
G1 F300 X27.899 Y67.95 E0.55093
G0 F6000 X27.957 Y67.965
G1 F300 X23.923 Y63.931 E0.55804
G0 F6000 X23.932 Y63.898
G1 F300 X28.015 Y67.981 E0.56525
G0 F6000 X28.073 Y67.996
G1 F300 X23.941 Y63.865 E0.57253
G0 F6000 X23.95 Y63.831
G1 F300 X28.131 Y68.012 E0.57991
G0 F6000 X28.189 Y68.027
G1 F300 X23.959 Y63.798 E0.58737
G0 F6000 X23.968 Y63.764
G1 F300 X28.247 Y68.043 E0.59492
G0 F6000 X28.305 Y68.059
G1 F300 X23.977 Y63.73 E0.60255
G0 F6000 X23.986 Y63.697
G1 F300 X28.362 Y68.073 E0.61027
G0 F6000 X28.42 Y68.089
G1 F300 X23.995 Y63.664 E0.61808
G0 F6000 X24.004 Y63.63
G1 F300 X28.478 Y68.104 E0.62597
G0 F6000 X28.536 Y68.12
G1 F300 X24.013 Y63.597 E0.63395
G0 F6000 X24.022 Y63.563
G1 F300 X28.594 Y68.136 E0.64201
G0 F6000 X28.652 Y68.151
G1 F300 X24.031 Y63.53 E0.65016
G0 F6000 X24.04 Y63.496
G1 F300 X28.71 Y68.167 E0.6584
G0 F6000 X28.768 Y68.182
G1 F300 X24.049 Y63.463 E0.66672
G0 F6000 X24.057 Y63.429
G1 F300 X28.826 Y68.198 E0.67514
G0 F6000 X28.884 Y68.213
G1 F300 X24.067 Y63.396 E0.68363
G0 F6000 X24.076 Y63.363
G1 F300 X28.942 Y68.229 E0.69222
G0 F6000 X29 Y68.244
G1 F300 X24.084 Y63.329 E0.70089
G0 F6000 X24.093 Y63.295
G1 F300 X29.058 Y68.26 E0.70964
G0 F6000 X29.116 Y68.276
G1 F300 X24.103 Y63.262 E0.71849
G0 F6000 X24.111 Y63.228
G1 F300 X29.174 Y68.291 E0.72742
G0 F6000 X29.232 Y68.307
G1 F300 X24.12 Y63.195 E0.73643
G0 F6000 X24.13 Y63.162
G1 F300 X29.29 Y68.322 E0.74554
G0 F6000 X29.348 Y68.338
G1 F300 X24.138 Y63.128 E0.75473
G0 F6000 X24.147 Y63.095
G1 F300 X29.406 Y68.353 E0.764
G0 F6000 X29.464 Y68.369
G1 F300 X24.156 Y63.061 E0.77336
G0 F6000 X24.166 Y63.028
G1 F300 X29.522 Y68.385 E0.78281
G0 F6000 X29.58 Y68.4
G1 F300 X24.174 Y62.994 E0.79235
G0 F6000 X24.183 Y62.961
G1 F300 X29.638 Y68.416 E0.80197
G0 F6000 X29.696 Y68.431
G1 F300 X24.192 Y62.928 E0.81168
G0 F6000 X24.201 Y62.894
G1 F300 X29.754 Y68.447 E0.82147
G0 F6000 X29.812 Y68.462
G1 F300 X24.21 Y62.861 E0.83135
G0 F6000 X24.219 Y62.827
G1 F300 X29.869 Y68.477 E0.84132
G0 F6000 X29.927 Y68.493
G1 F300 X24.228 Y62.793 E0.85137
G0 F6000 X24.237 Y62.76
G1 F300 X29.985 Y68.508 E0.86151
G0 F6000 X30.043 Y68.524
G1 F300 X24.246 Y62.727 E0.87174
G0 F6000 X24.255 Y62.693
G1 F300 X30.101 Y68.539 E0.88205
G0 F6000 X30.159 Y68.555
G1 F300 X24.264 Y62.66 E0.89245
G0 F6000 X24.273 Y62.627
G1 F300 X30.217 Y68.57 E0.90293
G0 F6000 X30.275 Y68.586
G1 F300 X24.282 Y62.593 E0.9135
G0 F6000 X24.291 Y62.559
G1 F300 X30.333 Y68.602 E0.92416
G0 F6000 X30.391 Y68.617
G1 F300 X24.3 Y62.526 E0.9349
G0 F6000 X24.308 Y62.492
G1 F300 X30.449 Y68.633 E0.94573
G0 F6000 X30.507 Y68.648
G1 F300 X24.318 Y62.459 E0.95665
G0 F6000 X24.327 Y62.426
G1 F300 X30.565 Y68.664 E0.96765
G0 F6000 X30.623 Y68.679
G1 F300 X24.335 Y62.392 E0.97874
G0 F6000 X24.344 Y62.359
G1 F300 X30.681 Y68.695 E0.98992
G0 F6000 X30.739 Y68.71
G1 F300 X24.354 Y62.325 E1.00118
G0 F6000 X24.362 Y62.291
G1 F300 X30.797 Y68.726 E1.01253
G0 F6000 X30.855 Y68.742
G1 F300 X24.371 Y62.258 E1.02397
G0 F6000 X24.381 Y62.225
G1 F300 X30.913 Y68.757 E1.03549
G0 F6000 X30.971 Y68.773
G1 F300 X24.389 Y62.191 E1.0471
G0 F6000 X24.398 Y62.158
G1 F300 X31.029 Y68.788 E1.0588
G0 F6000 X31.087 Y68.804
G1 F300 X24.407 Y62.124 E1.07058
G0 F6000 X24.416 Y62.091
G1 F300 X31.145 Y68.819 E1.08245
G0 F6000 X31.203 Y68.835
G1 F300 X24.425 Y62.057 E1.09441
G0 F6000 X24.434 Y62.024
G1 F300 X31.261 Y68.85 E1.10645
G0 F6000 X31.319 Y68.866
G1 F300 X24.443 Y61.991 E1.11857
G0 F6000 X24.452 Y61.957
G1 F300 X31.377 Y68.882 E1.13079
G0 F6000 X31.434 Y68.896
G1 F300 X24.461 Y61.924 E1.14309
G0 F6000 X24.47 Y61.89
G1 F300 X31.492 Y68.912 E1.15547
G0 F6000 X31.55 Y68.928
G1 F300 X24.479 Y61.856 E1.16795
G0 F6000 X24.488 Y61.823
G1 F300 X31.608 Y68.943 E1.18051
G0 F6000 X31.666 Y68.959
G1 F300 X24.497 Y61.79 E1.19315
G0 F6000 X24.506 Y61.756
G1 F300 X31.724 Y68.974 E1.20588
G0 F6000 X31.782 Y68.99
G1 F300 X24.515 Y61.723 E1.2187
G0 F6000 X24.524 Y61.69
G1 F300 X31.84 Y69.005 E1.2316
G0 F6000 X31.898 Y69.021
G1 F300 X24.533 Y61.656 E1.2446
G0 F6000 X24.542 Y61.622
G1 F300 X31.956 Y69.036 E1.25767
G0 F6000 X32.014 Y69.052
G1 F300 X24.551 Y61.589 E1.27084
G0 F6000 X24.559 Y61.555
G1 F300 X32.072 Y69.068 E1.28409
G0 F6000 X32.13 Y69.083
G1 F300 X24.569 Y61.522 E1.29743
G0 F6000 X24.578 Y61.489
G1 F300 X32.188 Y69.099 E1.31085
G0 F6000 X32.246 Y69.114
G1 F300 X24.586 Y61.455 E1.32436
G0 F6000 X24.596 Y61.422
G1 F300 X32.304 Y69.13 E1.33796
G0 F6000 X32.362 Y69.145
G1 F300 X24.605 Y61.388 E1.35164
G0 F6000 X24.613 Y61.354
G1 F300 X32.42 Y69.161 E1.36541
G0 F6000 X32.478 Y69.176
G1 F300 X24.622 Y61.321 E1.37926
G0 F6000 X24.632 Y61.288
G1 F300 X32.536 Y69.192 E1.39321
G0 F6000 X32.594 Y69.208
G1 F300 X24.64 Y61.254 E1.40724
G0 F6000 X24.649 Y61.221
G1 F300 X32.652 Y69.223 E1.42135
G0 F6000 X32.71 Y69.239
G1 F300 X24.658 Y61.188 E1.43555
G0 F6000 X24.667 Y61.154
G1 F300 X32.768 Y69.254 E1.44984
G0 F6000 X32.826 Y69.27
G1 F300 X24.676 Y61.12 E1.46422
G0 F6000 X24.685 Y61.087
G1 F300 X32.884 Y69.285 E1.47868
G0 F6000 X32.941 Y69.3
G1 F300 X24.694 Y61.053 E1.49323
G0 F6000 X24.703 Y61.02
G1 F300 X32.999 Y69.316 E1.50786
G0 F6000 X33.057 Y69.331
G1 F300 X24.712 Y60.987 E1.52258
G0 F6000 X24.721 Y60.954
G1 F300 X33.115 Y69.347 E1.53738
G0 F6000 X33.173 Y69.362
G1 F300 X24.73 Y60.92 E1.55227
G0 F6000 X24.739 Y60.886
G1 F300 X33.231 Y69.378 E1.56725
G0 F6000 X33.289 Y69.394
G1 F300 X24.748 Y60.853 E1.58232
G0 F6000 X24.757 Y60.819
G1 F300 X33.347 Y69.409 E1.59747
G0 F6000 X33.405 Y69.425
G1 F300 X24.766 Y60.786 E1.61271
G0 F6000 X24.775 Y60.753
G1 F300 X33.463 Y69.44 E1.62803
G0 F6000 X33.521 Y69.456
G1 F300 X24.784 Y60.719 E1.64344
G0 F6000 X24.793 Y60.686
G1 F300 X33.579 Y69.471 E1.65894
G0 F6000 X33.637 Y69.487
G1 F300 X24.802 Y60.652 E1.67452
G0 F6000 X24.81 Y60.618
G1 F300 X33.695 Y69.502 E1.6902
G0 F6000 X33.753 Y69.518
G1 F300 X24.82 Y60.585 E1.70595
G0 F6000 X24.829 Y60.552
G1 F300 X33.811 Y69.534 E1.7218
G0 F6000 X33.869 Y69.549
G1 F300 X24.837 Y60.518 E1.73773
G0 F6000 X24.847 Y60.485
G1 F300 X33.926 Y69.565 E1.75374
G0 F6000 X33.984 Y69.58
G1 F300 X24.856 Y60.451 E1.76984
G0 F6000 X24.864 Y60.418
G1 F300 X34.042 Y69.596 E1.78603
G0 F6000 X34.1 Y69.611
G1 F300 X24.873 Y60.384 E1.80231
G0 F6000 X24.883 Y60.351
G1 F300 X34.158 Y69.627 E1.81867
G0 F6000 X34.216 Y69.642
G1 F300 X24.891 Y60.317 E1.83512
G0 F6000 X24.9 Y60.284
G1 F300 X34.274 Y69.658 E1.85165
G0 F6000 X34.332 Y69.674
G1 F300 X24.909 Y60.251 E1.86827
G0 F6000 X24.918 Y60.217
G1 F300 X34.39 Y69.689 E1.88498
G0 F6000 X34.448 Y69.705
G1 F300 X24.927 Y60.183 E1.90177
G0 F6000 X24.936 Y60.15
G1 F300 X34.506 Y69.72 E1.91865
G0 F6000 X34.564 Y69.735
G1 F300 X24.945 Y60.116 E1.93562
G0 F6000 X24.954 Y60.083
G1 F300 X34.622 Y69.751 E1.95267
G0 F6000 X34.68 Y69.766
G1 F300 X24.963 Y60.05 E1.96981
G0 F6000 X24.972 Y60.016
G1 F300 X34.738 Y69.782 E1.98704
G0 F6000 X34.796 Y69.797
G1 F300 X24.981 Y59.983 E2.00435
G0 F6000 X24.99 Y59.949
G1 F300 X34.854 Y69.813 E2.02175
G0 F6000 X34.911 Y69.828
G1 F300 X24.999 Y59.916 E2.03923
G0 F6000 X25.008 Y59.882
G1 F300 X34.969 Y69.844 E2.0568
G0 F6000 X35.027 Y69.86
G1 F300 X25.017 Y59.849 E2.07446
G0 F6000 X25.026 Y59.816
G1 F300 X35.085 Y69.875 E2.09221
G0 F6000 X35.143 Y69.891
G1 F300 X25.035 Y59.782 E2.11004
G0 F6000 X25.044 Y59.749
G1 F300 X35.201 Y69.906 E2.12795
G0 F6000 X35.259 Y69.922
G1 F300 X25.053 Y59.715 E2.14595
G0 F6000 X25.061 Y59.681
G1 F300 X35.317 Y69.937 E2.16404
G0 F6000 X35.375 Y69.953
G1 F300 X25.071 Y59.648 E2.18222
G0 F6000 X25.08 Y59.615
G1 F300 X35.433 Y69.968 E2.20048
G0 F6000 X35.491 Y69.984
G1 F300 X25.088 Y59.581 E2.21883
G0 F6000 X25.098 Y59.548
G1 F300 X35.549 Y70 E2.23727
G0 F6000 X35.607 Y70.015
G1 F300 X25.107 Y59.515 E2.25579
G0 F6000 X25.115 Y59.481
G1 F300 X35.665 Y70.031 E2.2744
G0 F6000 X35.723 Y70.046
G1 F300 X25.124 Y59.447 E2.29309
G0 F6000 X25.134 Y59.414
G1 F300 X35.781 Y70.062 E2.31187
G0 F6000 X35.839 Y70.077
G1 F300 X25.142 Y59.38 E2.33074
G0 F6000 X25.151 Y59.347
G1 F300 X35.897 Y70.093 E2.3497
G0 F6000 X35.955 Y70.108
G1 F300 X25.16 Y59.314 E2.36874
G0 F6000 X25.169 Y59.28
G1 F300 X36.013 Y70.124 E2.38786
G0 F6000 X36.07 Y70.139
G1 F300 X25.178 Y59.247 E2.40708
G0 F6000 X25.187 Y59.213
G1 F300 X36.128 Y70.154 E2.42637
G0 F6000 X36.186 Y70.17
G1 F300 X25.196 Y59.179 E2.44576
G0 F6000 X25.205 Y59.146
G1 F300 X36.244 Y70.186 E2.46523
G0 F6000 X36.302 Y70.201
G1 F300 X25.214 Y59.113 E2.48479
G0 F6000 X25.223 Y59.079
G1 F300 X36.36 Y70.217 E2.50444
G0 F6000 X36.418 Y70.232
G1 F300 X25.232 Y59.046 E2.52417
G0 F6000 X25.241 Y59.013
G1 F300 X36.476 Y70.248 E2.54398
G0 F6000 X36.534 Y70.263
G1 F300 X25.25 Y58.979 E2.56389
G0 F6000 X25.259 Y58.945
G1 F300 X36.592 Y70.279 E2.58388
G0 F6000 X36.65 Y70.294
G1 F300 X25.268 Y58.912 E2.60396
G0 F6000 X25.276 Y58.878
G1 F300 X36.708 Y70.31 E2.62412
G0 F6000 X36.766 Y70.326
G1 F300 X25.286 Y58.845 E2.64437
G0 F6000 X25.295 Y58.812
G1 F300 X36.824 Y70.341 E2.66471
G0 F6000 X36.882 Y70.357
G1 F300 X25.304 Y58.778 E2.68513
G0 F6000 X25.313 Y58.745
G1 F300 X36.94 Y70.372 E2.70564
G0 F6000 X36.998 Y70.388
G1 F300 X25.322 Y58.711 E2.72623
G0 F6000 X25.331 Y58.678
G1 F300 X37.056 Y70.403 E2.74692
G0 F6000 X37.114 Y70.419
G1 F300 X25.339 Y58.644 E2.76769
G0 F6000 X25.349 Y58.611
G1 F300 X37.172 Y70.434 E2.78854
G0 F6000 X37.23 Y70.45
G1 F300 X25.358 Y58.578 E2.80948
G0 F6000 X25.366 Y58.544
G1 F300 X37.288 Y70.466 E2.83051
G0 F6000 X37.346 Y70.481
G1 F300 X25.375 Y58.51 E2.85163
G0 F6000 X25.385 Y58.477
G1 F300 X37.404 Y70.497 E2.87283
G0 F6000 X37.462 Y70.512
G1 F300 X25.393 Y58.443 E2.89411
G0 F6000 X25.402 Y58.41
G1 F300 X37.52 Y70.528 E2.91549
G0 F6000 X37.577 Y70.543
G1 F300 X25.412 Y58.377 E2.93695
G0 F6000 X25.42 Y58.343
G1 F300 X37.635 Y70.558 E2.95849
G0 F6000 X37.693 Y70.574
G1 F300 X25.429 Y58.31 E2.98013
G0 F6000 X25.438 Y58.276
G1 F300 X37.751 Y70.589 E3.00185
G0 F6000 X37.809 Y70.605
G1 F300 X25.447 Y58.242 E3.02365
G0 F6000 X25.456 Y58.209
G1 F300 X37.867 Y70.62 E3.04554
G0 F6000 X37.925 Y70.636
G1 F300 X25.465 Y58.176 E3.06752
G0 F6000 X25.474 Y58.142
G1 F300 X37.983 Y70.651 E3.08959
G0 F6000 X38.041 Y70.667
G1 F300 X25.483 Y58.109 E3.11174
G0 F6000 X25.492 Y58.076
G1 F300 X38.099 Y70.683 E3.13397
G0 F6000 X38.157 Y70.698
G1 F300 X25.501 Y58.042 E3.1563
G0 F6000 X25.51 Y58.008
G1 F300 X38.215 Y70.714 E3.17871
G0 F6000 X38.273 Y70.729
G1 F300 X25.519 Y57.975 E3.2012
G0 F6000 X25.527 Y57.941
G1 F300 X38.331 Y70.745 E3.22379
G0 F6000 X38.389 Y70.76
G1 F300 X25.537 Y57.908 E3.24646
G0 F6000 X25.546 Y57.875
G1 F300 X38.447 Y70.776 E3.26921
G0 F6000 X38.505 Y70.791
G1 F300 X25.554 Y57.841 E3.29206
G0 F6000 X25.564 Y57.808
G1 F300 X38.563 Y70.807 E3.31499
G0 F6000 X38.621 Y70.823
G1 F300 X25.573 Y57.774 E3.338
G0 F6000 X25.582 Y57.741
G1 F300 X38.679 Y70.838 E3.3611
G0 F6000 X38.737 Y70.854
G1 F300 X25.59 Y57.707 E3.38429
G0 F6000 X25.6 Y57.674
G1 F300 X38.795 Y70.869 E3.40757
