;FLAVOR:Marlin
;TIME:23109
;Filament used: 0.993406m
;Layer height: 0.06
;MINX:25.405
;MINY:36.386
;MINZ:0.1
;MAXX:104.595
;MAXY:93.614
;MAXZ:2.02
;Generated with Cura_SteamEngine 4.12.1
M82 ;absolute extrusion mode
G28 ;Home
G92 E0
;LAYER_COUNT:33
;LAYER:0
M107
;MESH:Strip without holes.stl
G0 F6000 X35.371 Y36.386 Z0.1
;TYPE:WALL-OUTER
G1 F300 X104.595 Y76.352 E0.0997
G1 X94.629 Y93.614 E0.12456
G1 X25.405 Y53.648 E0.22425
G1 X35.371 Y36.386 E0.24911
G0 F6000 X35.39 Y36.397
G0 X25.424 Y53.638
;TYPE:SKIN
G1 F300 X25.438 Y53.652 E0.24914
G0 F6000 X25.44 Y53.611
G1 F300 X25.539 Y53.71 E0.24931
G0 F6000 X25.639 Y53.768
G1 F300 X25.455 Y53.584 E0.24964
G0 F6000 X25.471 Y53.557
G1 F300 X25.74 Y53.826 E0.25011
G0 F6000 X25.84 Y53.884
G1 F300 X25.486 Y53.53 E0.25074
G0 F6000 X25.502 Y53.503
G1 F300 X25.94 Y53.942 E0.25151
G0 F6000 X26.041 Y54
G1 F300 X25.518 Y53.477 E0.25243
G0 F6000 X25.533 Y53.45
G1 F300 X26.141 Y54.058 E0.25351
G0 F6000 X26.242 Y54.116
G1 F300 X25.549 Y53.423 E0.25473
G0 F6000 X25.564 Y53.396
G1 F300 X26.342 Y54.174 E0.2561
G0 F6000 X26.442 Y54.232
G1 F300 X25.58 Y53.369 E0.25762
G0 F6000 X25.595 Y53.342
G1 F300 X26.543 Y54.29 E0.25929
G0 F6000 X26.643 Y54.348
G1 F300 X25.611 Y53.315 E0.26112
G0 F6000 X25.626 Y53.288
G1 F300 X26.744 Y54.406 E0.26309
G0 F6000 X26.844 Y54.464
G1 F300 X25.642 Y53.262 E0.26521
G0 F6000 X25.658 Y53.235
G1 F300 X26.945 Y54.522 E0.26748
G0 F6000 X27.045 Y54.58
G1 F300 X25.673 Y53.208 E0.2699
G0 F6000 X25.688 Y53.18
G1 F300 X27.145 Y54.638 E0.27247
G0 F6000 X27.246 Y54.696
G1 F300 X25.704 Y53.153 E0.27519
G0 F6000 X25.719 Y53.127
G1 F300 X27.345 Y54.753 E0.27806
G0 F6000 X27.446 Y54.811
G1 F300 X25.735 Y53.1 E0.28108
G0 F6000 X25.75 Y53.073
G1 F300 X27.546 Y54.869 E0.28424
G0 F6000 X27.647 Y54.927
G1 F300 X25.766 Y53.046 E0.28756
G0 F6000 X25.781 Y53.019
G1 F300 X27.747 Y54.985 E0.29103
G0 F6000 X27.847 Y55.043
G1 F300 X25.797 Y52.992 E0.29465
G0 F6000 X25.812 Y52.965
G1 F300 X27.948 Y55.101 E0.29841
G0 F6000 X28.048 Y55.159
G1 F300 X25.828 Y52.938 E0.30233
G0 F6000 X25.844 Y52.912
G1 F300 X28.149 Y55.217 E0.3064
G0 F6000 X28.249 Y55.275
G1 F300 X25.859 Y52.885 E0.31061
G0 F6000 X25.875 Y52.858
G1 F300 X28.35 Y55.333 E0.31498
G0 F6000 X28.45 Y55.391
G1 F300 X25.89 Y52.831 E0.31949
G0 F6000 X25.906 Y52.804
G1 F300 X28.55 Y55.449 E0.32416
G0 F6000 X28.651 Y55.507
G1 F300 X25.921 Y52.777 E0.32897
G0 F6000 X25.937 Y52.75
G1 F300 X28.751 Y55.565 E0.33394
G0 F6000 X28.852 Y55.623
G1 F300 X25.952 Y52.724 E0.33905
G0 F6000 X25.968 Y52.697
G1 F300 X28.952 Y55.681 E0.34431
G0 F6000 X29.052 Y55.739
G1 F300 X25.984 Y52.67 E0.34973
G0 F6000 X25.999 Y52.643
G1 F300 X29.153 Y55.797 E0.35529
G0 F6000 X29.253 Y55.855
G1 F300 X26.015 Y52.616 E0.361
G0 F6000 X26.03 Y52.589
G1 F300 X29.354 Y55.913 E0.36687
G0 F6000 X29.454 Y55.971
G1 F300 X26.046 Y52.562 E0.37288
G0 F6000 X26.061 Y52.535
G1 F300 X29.554 Y56.029 E0.37904
G0 F6000 X29.655 Y56.087
G1 F300 X26.076 Y52.508 E0.38535
G0 F6000 X26.092 Y52.481
G1 F300 X29.755 Y56.144 E0.39181
G0 F6000 X29.856 Y56.202
G1 F300 X26.107 Y52.454 E0.39843
G0 F6000 X26.123 Y52.427
G1 F300 X29.956 Y56.26 E0.40519
G0 F6000 X30.056 Y56.318
G1 F300 X26.138 Y52.4 E0.4121
G0 F6000 X26.154 Y52.373
G1 F300 X30.157 Y56.376 E0.41916
G0 F6000 X30.257 Y56.434
G1 F300 X26.17 Y52.347 E0.42637
G0 F6000 X26.185 Y52.32
G1 F300 X30.357 Y56.492 E0.43373
G0 F6000 X30.457 Y56.55
G1 F300 X26.201 Y52.293 E0.44124
G0 F6000 X26.216 Y52.266
G1 F300 X30.558 Y56.608 E0.44889
G0 F6000 X30.658 Y56.666
G1 F300 X26.232 Y52.239 E0.4567
G0 F6000 X26.247 Y52.212
G1 F300 X30.759 Y56.724 E0.46466
G0 F6000 X30.859 Y56.782
G1 F300 X26.263 Y52.185 E0.47277
G0 F6000 X26.278 Y52.159
G1 F300 X30.959 Y56.84 E0.48102
G0 F6000 X31.06 Y56.898
G1 F300 X26.294 Y52.132 E0.48943
G0 F6000 X26.31 Y52.105
G1 F300 X31.16 Y56.956 E0.49799
G0 F6000 X31.261 Y57.014
G1 F300 X26.325 Y52.078 E0.50669
G0 F6000 X26.341 Y52.051
G1 F300 X31.361 Y57.072 E0.51555
G0 F6000 X31.462 Y57.129
G1 F300 X26.356 Y52.024 E0.52455
G0 F6000 X26.372 Y51.997
G1 F300 X31.562 Y57.187 E0.53371
G0 F6000 X31.662 Y57.245
G1 F300 X26.387 Y51.97 E0.54301
G0 F6000 X26.403 Y51.944
G1 F300 X31.763 Y57.303 E0.55247
G0 F6000 X31.863 Y57.361
G1 F300 X26.418 Y51.917 E0.56207
G0 F6000 X26.433 Y51.889
G1 F300 X31.964 Y57.419 E0.57183
G0 F6000 X32.064 Y57.477
G1 F300 X26.449 Y51.862 E0.58173
G0 F6000 X26.464 Y51.835
G1 F300 X32.164 Y57.535 E0.59178
G0 F6000 X32.265 Y57.593
G1 F300 X26.48 Y51.809 E0.60199
G0 F6000 X26.495 Y51.782
G1 F300 X32.365 Y57.651 E0.61234
G0 F6000 X32.466 Y57.709
G1 F300 X26.511 Y51.755 E0.62284
G0 F6000 X26.527 Y51.728
G1 F300 X32.566 Y57.767 E0.6335
G0 F6000 X32.666 Y57.825
G1 F300 X26.542 Y51.701 E0.6443
G0 F6000 X26.558 Y51.674
G1 F300 X32.767 Y57.883 E0.65525
G0 F6000 X32.867 Y57.941
G1 F300 X26.573 Y51.647 E0.66635
G0 F6000 X26.589 Y51.62
G1 F300 X32.968 Y57.999 E0.6776
G0 F6000 X33.068 Y58.057
G1 F300 X26.604 Y51.594 E0.689
G0 F6000 X26.62 Y51.567
G1 F300 X33.168 Y58.114 E0.70055
G0 F6000 X33.268 Y58.172
G1 F300 X26.636 Y51.54 E0.71225
G0 F6000 X26.651 Y51.513
G1 F300 X33.369 Y58.23 E0.7241
G0 F6000 X33.469 Y58.288
G1 F300 X26.667 Y51.486 E0.7361
G0 F6000 X26.682 Y51.459
G1 F300 X33.569 Y58.346 E0.74825
G0 F6000 X33.67 Y58.404
G1 F300 X26.698 Y51.432 E0.76054
G0 F6000 X26.713 Y51.405
G1 F300 X33.77 Y58.462 E0.77299
G0 F6000 X33.871 Y58.52
G1 F300 X26.729 Y51.379 E0.78559
G0 F6000 X26.744 Y51.352
G1 F300 X33.971 Y58.578 E0.79834
G0 F6000 X34.071 Y58.636
G1 F300 X26.76 Y51.325 E0.81123
G0 F6000 X26.776 Y51.298
G1 F300 X34.172 Y58.694 E0.82428
G0 F6000 X34.272 Y58.752
G1 F300 X26.791 Y51.271 E0.83747
G0 F6000 X26.807 Y51.244
G1 F300 X34.373 Y58.81 E0.85082
G0 F6000 X34.473 Y58.868
G1 F300 X26.821 Y51.217 E0.86431
G0 F6000 X26.837 Y51.19
G1 F300 X34.573 Y58.926 E0.87796
G0 F6000 X34.674 Y58.984
G1 F300 X26.853 Y51.163 E0.89176
G0 F6000 X26.868 Y51.136
G1 F300 X34.774 Y59.042 E0.9057
G0 F6000 X34.875 Y59.1
G1 F300 X26.884 Y51.109 E0.9198
G0 F6000 X26.899 Y51.082
G1 F300 X34.975 Y59.158 E0.93404
G0 F6000 X35.076 Y59.216
G1 F300 X26.915 Y51.055 E0.94844
G0 F6000 X26.93 Y51.029
G1 F300 X35.176 Y59.274 E0.96298
G0 F6000 X35.276 Y59.332
G1 F300 X26.946 Y51.002 E0.97767
G0 F6000 X26.961 Y50.975
G1 F300 X35.377 Y59.39 E0.99252
G0 F6000 X35.477 Y59.448
G1 F300 X26.977 Y50.948 E1.00751
G0 F6000 X26.993 Y50.921
G1 F300 X35.578 Y59.506 E1.02265
G0 F6000 X35.678 Y59.564
G1 F300 X27.008 Y50.894 E1.03795
G0 F6000 X27.024 Y50.867
G1 F300 X35.778 Y59.622 E1.05339
G0 F6000 X35.879 Y59.68
G1 F300 X27.039 Y50.84 E1.06898
G0 F6000 X27.055 Y50.814
G1 F300 X35.979 Y59.737 E1.08472
G0 F6000 X36.079 Y59.795
G1 F300 X27.07 Y50.787 E1.10061
G0 F6000 X27.086 Y50.76
G1 F300 X36.179 Y59.853 E1.11665
G0 F6000 X36.28 Y59.911
G1 F300 X27.101 Y50.733 E1.13284
G0 F6000 X27.117 Y50.706
G1 F300 X36.38 Y59.969 E1.14918
G0 F6000 X36.481 Y60.027
G1 F300 X27.133 Y50.679 E1.16567
G0 F6000 X27.148 Y50.652
G1 F300 X36.581 Y60.085 E1.18231
G0 F6000 X36.681 Y60.143
G1 F300 X27.164 Y50.626 E1.19909
G0 F6000 X27.179 Y50.599
G1 F300 X36.782 Y60.201 E1.21603
G0 F6000 X36.882 Y60.259
G1 F300 X27.194 Y50.571 E1.23312
G0 F6000 X27.21 Y50.544
G1 F300 X36.983 Y60.317 E1.25036
G0 F6000 X37.083 Y60.375
G1 F300 X27.225 Y50.517 E1.26775
G0 F6000 X27.241 Y50.49
G1 F300 X37.183 Y60.433 E1.28528
G0 F6000 X37.284 Y60.491
G1 F300 X27.256 Y50.464 E1.30297
G0 F6000 X27.272 Y50.437
G1 F300 X37.384 Y60.549 E1.32081
G0 F6000 X37.485 Y60.607
G1 F300 X27.287 Y50.41 E1.33879
G0 F6000 X27.303 Y50.383
G1 F300 X37.585 Y60.665 E1.35693
G0 F6000 X37.685 Y60.723
G1 F300 X27.319 Y50.356 E1.37522
G0 F6000 X27.334 Y50.329
G1 F300 X37.786 Y60.781 E1.39365
G0 F6000 X37.886 Y60.839
G1 F300 X27.35 Y50.302 E1.41224
G0 F6000 X27.365 Y50.275
G1 F300 X37.987 Y60.897 E1.43097
G0 F6000 X38.087 Y60.955
G1 F300 X27.381 Y50.249 E1.44986
G0 F6000 X27.396 Y50.222
G1 F300 X38.188 Y61.013 E1.46889
G0 F6000 X38.288 Y61.071
G1 F300 X27.412 Y50.195 E1.48808
G0 F6000 X27.427 Y50.168
G1 F300 X38.388 Y61.129 E1.50741
G0 F6000 X38.489 Y61.187
G1 F300 X27.443 Y50.141 E1.52689
G0 F6000 X27.459 Y50.114
G1 F300 X38.589 Y61.245 E1.54653
G0 F6000 X38.69 Y61.303
G1 F300 X27.474 Y50.087 E1.56631
G0 F6000 X27.49 Y50.061
G1 F300 X38.79 Y61.361 E1.58624
G0 F6000 X38.89 Y61.418
G1 F300 X27.505 Y50.034 E1.60632
G0 F6000 X27.521 Y50.007
G1 F300 X38.99 Y61.476 E1.62655
G0 F6000 X39.09 Y61.534
G1 F300 X27.536 Y49.98 E1.64693
G0 F6000 X27.552 Y49.953
G1 F300 X39.191 Y61.592 E1.66746
G0 F6000 X39.291 Y61.65
G1 F300 X27.567 Y49.926 E1.68814
G0 F6000 X27.582 Y49.899
G1 F300 X39.392 Y61.708 E1.70897
G0 F6000 X39.492 Y61.766
G1 F300 X27.598 Y49.872 E1.72995
G0 F6000 X27.613 Y49.845
G1 F300 X39.593 Y61.824 E1.75108
G0 F6000 X39.693 Y61.882
G1 F300 X27.629 Y49.818 E1.77236
G0 F6000 X27.645 Y49.791
G1 F300 X39.793 Y61.94 E1.79379
G0 F6000 X39.894 Y61.998
G1 F300 X27.66 Y49.764 E1.81537
G0 F6000 X27.676 Y49.737
G1 F300 X39.994 Y62.056 E1.8371
G0 F6000 X40.095 Y62.114
G1 F300 X27.691 Y49.711 E1.85898
G0 F6000 X27.707 Y49.684
G1 F300 X40.195 Y62.172 E1.88101
G0 F6000 X40.295 Y62.23
G1 F300 X27.722 Y49.657 E1.90318
G0 F6000 X27.738 Y49.63
G1 F300 X40.396 Y62.288 E1.92551
G0 F6000 X40.496 Y62.346
G1 F300 X27.753 Y49.603 E1.94799
G0 F6000 X27.769 Y49.576
G1 F300 X40.597 Y62.404 E1.97061
G0 F6000 X40.697 Y62.462
G1 F300 X27.785 Y49.549 E1.99339
G0 F6000 X27.8 Y49.522
G1 F300 X40.797 Y62.52 E2.01632
G0 F6000 X40.898 Y62.578
G1 F300 X27.816 Y49.496 E2.03939
G0 F6000 X27.831 Y49.469
G1 F300 X40.998 Y62.636 E2.06262
G0 F6000 X41.099 Y62.694
G1 F300 X27.847 Y49.442 E2.08599
G0 F6000 X27.862 Y49.415
G1 F300 X41.199 Y62.752 E2.10952
G0 F6000 X41.299 Y62.81
G1 F300 X27.878 Y49.388 E2.13319
G0 F6000 X27.893 Y49.361
G1 F300 X41.4 Y62.868 E2.15702
G0 F6000 X41.5 Y62.926
G1 F300 X27.909 Y49.334 E2.18099
G0 F6000 X27.925 Y49.307
G1 F300 X41.601 Y62.984 E2.20511
G0 F6000 X41.701 Y63.042
G1 F300 X27.94 Y49.281 E2.22939
G0 F6000 X27.955 Y49.253
G1 F300 X41.801 Y63.099 E2.25381
G0 F6000 X41.901 Y63.157
G1 F300 X27.971 Y49.226 E2.27838
G0 F6000 X27.986 Y49.199
G1 F300 X42.002 Y63.215 E2.3031
G0 F6000 X42.102 Y63.273
G1 F300 X28.002 Y49.172 E2.32797
G0 F6000 X28.017 Y49.146
G1 F300 X42.202 Y63.331 E2.353
G0 F6000 X42.303 Y63.389
G1 F300 X28.033 Y49.119 E2.37817
G0 F6000 X28.048 Y49.092
G1 F300 X42.403 Y63.447 E2.40349
G0 F6000 X42.504 Y63.505
G1 F300 X28.064 Y49.065 E2.42896
G0 F6000 X28.079 Y49.038
G1 F300 X42.604 Y63.563 E2.45458
G0 F6000 X42.705 Y63.621
G1 F300 X28.095 Y49.011 E2.48035
G0 F6000 X28.111 Y48.984
G1 F300 X42.805 Y63.679 E2.50627
G0 F6000 X42.905 Y63.737
G1 F300 X28.126 Y48.957 E2.53234
G0 F6000 X28.142 Y48.931
G1 F300 X43.006 Y63.795 E2.55855
G0 F6000 X43.106 Y63.853
G1 F300 X28.157 Y48.904 E2.58492
G0 F6000 X28.173 Y48.877
G1 F300 X43.207 Y63.911 E2.61144
G0 F6000 X43.307 Y63.969
G1 F300 X28.188 Y48.85 E2.63811
G0 F6000 X28.204 Y48.823
G1 F300 X43.407 Y64.027 E2.66493
G0 F6000 X43.508 Y64.085
G1 F300 X28.219 Y48.796 E2.6919
G0 F6000 X28.235 Y48.769
G1 F300 X43.608 Y64.143 E2.71901
G0 F6000 X43.709 Y64.201
G1 F300 X28.251 Y48.742 E2.74628
G0 F6000 X28.266 Y48.716
G1 F300 X43.809 Y64.259 E2.7737
G0 F6000 X43.909 Y64.317
G1 F300 X28.282 Y48.689 E2.80126
G0 F6000 X28.297 Y48.662
G1 F300 X44.01 Y64.375 E2.82898
G0 F6000 X44.11 Y64.432
G1 F300 X28.313 Y48.635 E2.85684
G0 F6000 X28.328 Y48.607
G1 F300 X44.211 Y64.49 E2.88486
G0 F6000 X44.311 Y64.548
G1 F300 X28.343 Y48.581 E2.91302
G0 F6000 X28.359 Y48.554
G1 F300 X44.411 Y64.606 E2.94133
G0 F6000 X44.512 Y64.664
G1 F300 X28.374 Y48.527 E2.9698
G0 F6000 X28.39 Y48.5
G1 F300 X44.612 Y64.722 E2.99841
G0 F6000 X44.712 Y64.78
G1 F300 X28.405 Y48.473 E3.02718
G0 F6000 X28.421 Y48.446
G1 F300 X44.812 Y64.838 E3.05609
G0 F6000 X44.913 Y64.896
G1 F300 X28.437 Y48.419 E3.08515
G0 F6000 X28.452 Y48.392
G1 F300 X45.013 Y64.954 E3.11436
G0 F6000 X45.114 Y65.012
G1 F300 X28.468 Y48.366 E3.14373
G0 F6000 X28.483 Y48.339
G1 F300 X45.214 Y65.07 E3.17324
G0 F6000 X45.314 Y65.128
G1 F300 X28.499 Y48.312 E3.2029
G0 F6000 X28.514 Y48.285
G1 F300 X45.415 Y65.186 E3.23271
G0 F6000 X45.515 Y65.244
G1 F300 X28.53 Y48.258 E3.26267
G0 F6000 X28.545 Y48.231
G1 F300 X45.616 Y65.302 E3.29278
G0 F6000 X45.716 Y65.36
G1 F300 X28.561 Y48.204 E3.32304
G0 F6000 X28.577 Y48.178
G1 F300 X45.816 Y65.417 E3.35345
G0 F6000 X45.917 Y65.475
G1 F300 X28.592 Y48.151 E3.38401
G0 F6000 X28.608 Y48.124
G1 F300 X46.017 Y65.533 E3.41472
G0 F6000 X46.118 Y65.591
G1 F300 X28.623 Y48.097 E3.44557
G0 F6000 X28.639 Y48.07
G1 F300 X46.218 Y65.649 E3.47658
G0 F6000 X46.319 Y65.707
G1 F300 X28.654 Y48.043 E3.50774
G0 F6000 X28.67 Y48.016
G1 F300 X46.419 Y65.765 E3.53905
G0 F6000 X46.519 Y65.823
G1 F300 X28.685 Y47.989 E3.5705
G0 F6000 X28.701 Y47.963
G1 F300 X46.62 Y65.881 E3.60211
G0 F6000 X46.72 Y65.939
G1 F300 X28.716 Y47.935 E3.63387
G0 F6000 X28.731 Y47.908
G1 F300 X46.821 Y65.997 E3.66577
G0 F6000 X46.921 Y66.055
G1 F300 X28.747 Y47.881 E3.69783
G0 F6000 X28.762 Y47.854
G1 F300 X47.021 Y66.113 E3.73004
G0 F6000 X47.122 Y66.171
G1 F300 X28.778 Y47.827 E3.7624
G0 F6000 X28.794 Y47.801
G1 F300 X47.222 Y66.229 E3.7949
G0 F6000 X47.323 Y66.287
G1 F300 X28.809 Y47.774 E3.82756
G0 F6000 X28.825 Y47.747
G1 F300 X47.423 Y66.345 E3.86036
G0 F6000 X47.523 Y66.402
G1 F300 X28.84 Y47.72 E3.89331
G0 F6000 X28.856 Y47.693
G1 F300 X47.623 Y66.46 E3.92642
G0 F6000 X47.724 Y66.518
G1 F300 X28.871 Y47.666 E3.95967
G0 F6000 X28.887 Y47.639
G1 F300 X47.824 Y66.576 E3.99307
G0 F6000 X47.924 Y66.634
G1 F300 X28.902 Y47.613 E4.02663
G0 F6000 X28.918 Y47.586
G1 F300 X48.025 Y66.692 E4.06033
G0 F6000 X48.125 Y66.75
G1 F300 X28.934 Y47.559 E4.09418
G0 F6000 X28.949 Y47.532
G1 F300 X48.226 Y66.808 E4.12818
G0 F6000 X48.326 Y66.866
G1 F300 X28.965 Y47.505 E4.16233
G0 F6000 X28.98 Y47.478
G1 F300 X48.426 Y66.924 E4.19663
G0 F6000 X48.527 Y66.982
G1 F300 X28.996 Y47.451 E4.23108
G0 F6000 X29.011 Y47.424
G1 F300 X48.627 Y67.04 E4.26568
G0 F6000 X48.728 Y67.098
G1 F300 X29.027 Y47.398 E4.30043
G0 F6000 X29.042 Y47.371
G1 F300 X48.828 Y67.156 E4.33533
G0 F6000 X48.928 Y67.214
G1 F300 X29.058 Y47.344 E4.37038
G0 F6000 X29.074 Y47.317
G1 F300 X49.029 Y67.272 E4.40558
G0 F6000 X49.129 Y67.33
G1 F300 X29.088 Y47.289 E4.44093
G0 F6000 X29.104 Y47.263
G1 F300 X49.23 Y67.388 E4.47643
G0 F6000 X49.33 Y67.446
G1 F300 X29.12 Y47.236 E4.51207
G0 F6000 X29.135 Y47.209
G1 F300 X49.431 Y67.504 E4.54787
G0 F6000 X49.531 Y67.562
G1 F300 X29.151 Y47.182 E4.58382
G0 F6000 X29.166 Y47.155
G1 F300 X49.631 Y67.62 E4.61992
G0 F6000 X49.732 Y67.678
G1 F300 X29.182 Y47.128 E4.65617
G0 F6000 X29.197 Y47.101
G1 F300 X49.832 Y67.736 E4.69256
G0 F6000 X49.933 Y67.794
G1 F300 X29.213 Y47.074 E4.72911
G0 F6000 X29.228 Y47.048
G1 F300 X50.033 Y67.852 E4.76581
G0 F6000 X50.133 Y67.91
G1 F300 X29.244 Y47.021 E4.80265
G0 F6000 X29.26 Y46.994
G1 F300 X50.234 Y67.968 E4.83965
G0 F6000 X50.334 Y68.026
G1 F300 X29.275 Y46.967 E4.8768
G0 F6000 X29.291 Y46.94
G1 F300 X50.434 Y68.083 E4.91409
G0 F6000 X50.534 Y68.141
G1 F300 X29.306 Y46.913 E4.95153
G0 F6000 X29.322 Y46.886
G1 F300 X50.635 Y68.199 E4.98913
G0 F6000 X50.735 Y68.257
G1 F300 X29.337 Y46.859 E5.02687
G0 F6000 X29.353 Y46.833
G1 F300 X50.836 Y68.315 E5.06476
G0 F6000 X50.936 Y68.373
G1 F300 X29.368 Y46.806 E5.10281
G0 F6000 X29.384 Y46.779
G1 F300 X51.036 Y68.431 E5.141
G0 F6000 X51.137 Y68.489
G1 F300 X29.4 Y46.752 E5.17934
G0 F6000 X29.415 Y46.725
G1 F300 X51.237 Y68.547 E5.21783
G0 F6000 X51.338 Y68.605
G1 F300 X29.431 Y46.698 E5.25647
G0 F6000 X29.446 Y46.671
G1 F300 X51.438 Y68.663 E5.29526
G0 F6000 X51.538 Y68.721
G1 F300 X29.462 Y46.645 E5.3342
G0 F6000 X29.477 Y46.617
G1 F300 X51.639 Y68.779 E5.37329
G0 F6000 X51.739 Y68.837
G1 F300 X29.492 Y46.59 E5.41254
G0 F6000 X29.508 Y46.563
G1 F300 X51.84 Y68.895 E5.45193
G0 F6000 X51.94 Y68.953
G1 F300 X29.523 Y46.536 E5.49147
G0 F6000 X29.539 Y46.509
G1 F300 X52.04 Y69.011 E5.53116
G0 F6000 X52.141 Y69.069
G1 F300 X29.554 Y46.483 E5.571
G0 F6000 X29.57 Y46.456
G1 F300 X52.241 Y69.127 E5.61099
G0 F6000 X52.342 Y69.185
G1 F300 X29.586 Y46.429 E5.65113
G0 F6000 X29.601 Y46.402
G1 F300 X52.442 Y69.243 E5.69141
